render/icons/grok.svg

<svg width="40" height="40" viewBox="0 0 40 40" fill="none" xmlns="http://www.w3.org/2000/svg">
<path d="M0 8C0 3.58172 3.58172 0 8 0H32C36.4183 0 40 3.58172 40 8V32C40 36.4183 36.4183 40 32 40H8C3.58172 40 0 36.4183 0 32V8Z" fill="black"/>
<g clip-path="url(#clip0_2788_23746)">
<path d="M16.5864 24.2563L26.5591 16.5781C27.0491 16.2031 27.7473 16.3494 27.9809 16.9344C29.2073 20.0169 28.6591 23.7228 26.2191 26.2672C23.78 28.8116 20.3855 29.3703 17.2827 28.0991L13.8936 29.735C18.7545 33.2009 24.6573 32.3431 28.3464 28.4937C31.2727 25.4422 32.1791 21.2825 31.3318 17.5316L31.3391 17.54C30.1109 12.0294 31.6409 9.82719 34.7773 5.32344L35 5L30.8727 9.30313V9.29L16.5845 24.26M14.5273 26.1228C11.0391 22.6475 11.6409 17.2672 14.6182 14.165C16.8182 11.8691 20.4255 10.9325 23.5745 12.3097L26.9564 10.6812C26.3473 10.2219 25.5655 9.72781 24.67 9.38094C20.62 7.64281 15.7709 8.50813 12.4791 11.9384C9.31273 15.2413 8.31636 20.3197 10.0273 24.6519C11.3045 27.89 9.21 30.1813 7.1 32.4931C6.35455 33.3125 5.60545 34.1319 5 35L14.5255 26.1256" fill="white"/>
</g>
<defs>
<clipPath id="clip0_2788_23746">
<rect width="30" height="30" fill="white" transform="translate(5 5)"/>
</clipPath>
</defs>
</svg>

<svg xmlns="http://www.w3.org/2000/svg" width="40" height="40" fill="none">
  <path fill="#000" d="M0 8a8 8 0 0 1 8-8h24a8 8 0 0 1 8 8v24a8 8 0 0 1-8 8H8a8 8 0 0 1-8-8V8Z"/>
  <g clip-path="url(#a)">
    <path fill="#fff" d="m16.586 24.256 9.973-7.678c.49-.375 1.188-.229 1.422.356 1.226 3.083.678 6.789-1.762 9.333-2.439 2.545-5.834 3.103-8.936 1.832l-3.39 1.636c4.861 3.466 10.764 2.608 14.453-1.241 2.927-3.052 3.833-7.212 2.986-10.962l.007.008c-1.228-5.51.302-7.713 3.438-12.217L35 5l-4.127 4.303V9.29L16.584 24.26m-2.057 1.863c-3.488-3.476-2.886-8.856.091-11.958 2.2-2.296 5.807-3.232 8.957-1.855l3.381-1.629c-.609-.46-1.39-.953-2.286-1.3-4.05-1.738-8.9-.873-12.19 2.557-3.167 3.303-4.164 8.382-2.453 12.714 1.278 3.238-.817 5.53-2.927 7.841-.745.82-1.495 1.639-2.1 2.507l9.525-8.874"/>
  </g>
  <defs>
    <clipPath id="a">
      <path fill="#fff" d="M5 5h30v30H5z"/>
    </clipPath>
  </defs>
</svg>
